icons/1_Primary/Docker.svg

<svg width="1024" height="1024" fill="none" xmlns="http://www.w3.org/2000/svg"><g clip-path="url(#a)"><path d="M512 1024c282.77 0 512-229.23 512-512S794.77 0 512 0 0 229.23 0 512s229.23 512 512 512Z" fill="#9ABEFF"/><path d="M827.3 461.5c-1.6-1.3-16.1-12.2-46.7-12.2-8.1 0-16.2.6-24.2 2.1-5.9-40.7-39.5-60.5-41-61.4l-8.2-4.8-5.4 7.8c-6.8 10.5-11.7 22-14.6 34.2-5.5 23.2-2.2 45 9.6 63.6-14.2 7.9-37.1 9.9-41.7 10H277c-9.9 0-17.9 8-17.9 17.9-.4 33.1 5.2 66 16.5 97.1 13 34.2 32.4 59.3 57.6 74.7 28.2 17.3 74.1 27.2 126.2 27.2 23.5.1 47-2.1 70.1-6.4 32.1-5.9 63-17.1 91.4-33.2 23.4-13.6 44.5-30.8 62.4-51.1 29.9-33.9 47.8-71.7 61.1-105.2h5.3c32.8 0 53-13.1 64.1-24.1 7.4-7 13.2-15.5 16.9-25l2.3-6.9-5.7-4.3ZM312 489.9h50.7c2.4 0 4.4-2 4.4-4.4v-45.1c0-2.4-2-4.4-4.4-4.5H312c-2.4 0-4.4 2-4.4 4.4v45.2c0 2.5 2 4.4 4.4 4.4Zm69.9 0h50.7c2.4 0 4.4-2 4.4-4.4v-45.1c0-2.4-2-4.4-4.4-4.5h-50.7c-2.5 0-4.5 2-4.5 4.5v45.1c0 2.5 2 4.4 4.5 4.4Zm70.8.1h50.7c2.4 0 4.4-2 4.4-4.4v-45.1c0-2.4-2-4.4-4.4-4.5h-50.7c-2.4 0-4.4 2-4.4 4.4v45.2c0 2.4 2 4.3 4.4 4.4Zm70.1 0h50.7c2.4 0 4.4-2 4.5-4.4v-45.1c0-2.5-2-4.5-4.5-4.5h-50.7c-2.4 0-4.4 2-4.4 4.4v45.2c0 2.4 1.9 4.4 4.4 4.4Zm-141-65h50.7c2.4 0 4.4-2 4.4-4.5v-45.1c0-2.4-2-4.4-4.4-4.4h-50.7c-2.5 0-4.4 2-4.5 4.4v45.1c.1 2.5 2.1 4.5 4.5 4.5Zm70.9 0h50.7c2.4 0 4.4-2 4.4-4.5v-45.1c0-2.4-2-4.4-4.4-4.4h-50.7c-2.4 0-4.4 2-4.4 4.4v45.1c0 2.5 2 4.5 4.4 4.5Zm70.1 0h50.7c2.5 0 4.4-2 4.5-4.5v-45.1c0-2.5-2-4.4-4.5-4.4h-50.7c-2.4 0-4.4 2-4.4 4.4v45.1c0 2.5 1.9 4.5 4.4 4.5Zm0-64.9h50.7c2.5 0 4.5-2 4.5-4.5v-45.2c0-2.4-2-4.4-4.5-4.4h-50.7c-2.4 0-4.4 2-4.4 4.4v45.2c0 2.5 1.9 4.5 4.4 4.5ZM593.4 490h50.7c2.4 0 4.4-2 4.4-4.4v-45.1c0-2.5-2-4.4-4.4-4.5h-50.7c-2.4 0-4.4 2-4.4 4.4v45.2c0 2.4 2 4.4 4.4 4.4Z" fill="#fff"/></g><defs><clipPath id="a"><path fill="#fff" d="M0 0h1024v1024H0z"/></clipPath></defs></svg>

<svg width="1024" height="1024" viewBox="0 0 1024 1024" fill="none" xmlns="http://www.w3.org/2000/svg">
<g clip-path="url(#clip0_2_2043)">
<path d="M512 1024C794.77 1024 1024 794.77 1024 512C1024 229.23 794.77 0 512 0C229.23 0 0 229.23 0 512C0 794.77 229.23 1024 512 1024Z" fill="#9ABEFF"/>
<path d="M827.3 461.5C825.7 460.2 811.2 449.3 780.6 449.3C772.5 449.3 764.4 449.9 756.4 451.4C750.5 410.7 716.9 390.9 715.4 390L707.2 385.2L701.8 393C695 403.5 690.1 415 687.2 427.2C681.7 450.4 685 472.2 696.8 490.8C682.6 498.7 659.7 500.7 655.1 500.8H277C267.1 500.8 259.1 508.8 259.1 518.7C258.7 551.8 264.3 584.7 275.6 615.8C288.6 650 308 675.1 333.2 690.5C361.4 707.8 407.3 717.7 459.4 717.7C482.9 717.8 506.4 715.6 529.5 711.3C561.6 705.4 592.5 694.2 620.9 678.1C644.3 664.5 665.4 647.3 683.3 627C713.2 593.1 731.1 555.3 744.4 521.8H749.7C782.5 521.8 802.7 508.7 813.8 497.7C821.2 490.7 827 482.2 830.7 472.7L833 465.8L827.3 461.5ZM312 489.9H362.7C365.1 489.9 367.1 487.9 367.1 485.5V440.4C367.1 438 365.1 436 362.7 435.9H312C309.6 435.9 307.6 437.9 307.6 440.3V485.5C307.6 488 309.6 489.9 312 489.9ZM381.9 489.9H432.6C435 489.9 437 487.9 437 485.5V440.4C437 438 435 436 432.6 435.9H381.9C379.4 435.9 377.4 437.9 377.4 440.4V485.5C377.4 488 379.4 489.9 381.9 489.9ZM452.7 490H503.4C505.8 490 507.8 488 507.8 485.6V440.5C507.8 438.1 505.8 436.1 503.4 436H452.7C450.3 436 448.3 438 448.3 440.4V485.6C448.3 488 450.3 489.9 452.7 490ZM522.8 490H573.5C575.9 490 577.9 488 578 485.6V440.5C578 438 576 436 573.5 436H522.8C520.4 436 518.4 438 518.4 440.4V485.6C518.4 488 520.3 490 522.8 490ZM381.8 425H432.5C434.9 425 436.9 423 436.9 420.5V375.4C436.9 373 434.9 371 432.5 371H381.8C379.3 371 377.4 373 377.3 375.4V420.5C377.4 423 379.4 425 381.8 425ZM452.7 425H503.4C505.8 425 507.8 423 507.8 420.5V375.4C507.8 373 505.8 371 503.4 371H452.7C450.3 371 448.3 373 448.3 375.4V420.5C448.3 423 450.3 425 452.7 425ZM522.8 425H573.5C576 425 577.9 423 578 420.5V375.4C578 372.9 576 371 573.5 371H522.8C520.4 371 518.4 373 518.4 375.4V420.5C518.4 423 520.3 425 522.8 425ZM522.8 360.1H573.5C576 360.1 578 358.1 578 355.6V310.4C578 308 576 306 573.5 306H522.8C520.4 306 518.4 308 518.4 310.4V355.6C518.4 358.1 520.3 360.1 522.8 360.1ZM593.4 490H644.1C646.5 490 648.5 488 648.5 485.6V440.5C648.5 438 646.5 436.1 644.1 436H593.4C591 436 589 438 589 440.4V485.6C589 488 591 490 593.4 490Z" fill="white"/>
</g>
<defs>
<clipPath id="clip0_2_2043">
<rect width="1024" height="1024" fill="white"/>
</clipPath>
</defs>
</svg>
